src/assets/icons/months,fancy,january-1.svg

<svg width="48" height="48" viewBox="0 0 48 48" fill="none" xmlns="http://www.w3.org/2000/svg">
<rect opacity="0.2" x="4" y="6" width="40" height="40" rx="4" fill="black"/>
<path d="M13.2408 24.3636V32.4773C13.2351 33.5966 12.7351 34.1875 11.826 34.1875C10.968 34.1875 10.4112 33.6534 10.3942 32.7273H7.94531C7.93395 35.0511 9.59304 36.1591 11.701 36.1591C14.0589 36.1591 15.6669 34.733 15.6726 32.4773V24.3636H13.2408ZM19.7124 36L20.576 33.3466H24.7749L25.6385 36H28.2749L24.2635 24.3636H21.093L17.076 36H19.7124ZM21.201 31.4261L22.6328 27.0227H22.7237L24.1555 31.4261H21.201ZM39.4084 24.3636H36.9595V31.6818H36.8572L31.8345 24.3636H29.6754V36H32.1357V28.6761H32.2209L37.2834 36H39.4084V24.3636Z" fill="black"/>
<g opacity="0.4">
<path d="M10 4C10 2.89543 10.8954 2 12 2C13.1046 2 14 2.89543 14 4V8C14 9.10457 13.1046 10 12 10C10.8954 10 10 9.10457 10 8V4Z" fill="black"/>
<path d="M34 4C34 2.89543 34.8954 2 36 2C37.1046 2 38 2.89543 38 4V8C38 9.10457 37.1046 10 36 10C34.8954 10 34 9.10457 34 8V4Z" fill="black"/>
</g>
<path fill-rule="evenodd" clip-rule="evenodd" d="M10 6.00869C7.52043 6.04456 6.11466 6.22849 5.17157 7.17157C4 8.34315 4 10.2288 4 14V16H44V14C44 10.2288 44 8.34315 42.8284 7.17157C41.8853 6.22849 40.4796 6.04456 38 6.00869V8C38 9.10457 37.1046 10 36 10C34.8954 10 34 9.10457 34 8V6H14V8C14 9.10457 13.1046 10 12 10C10.8954 10 10 9.10457 10 8V6.00869Z" fill="black"/>
</svg>

<svg xmlns="http://www.w3.org/2000/svg" width="48" height="48" fill="none" viewBox="0 0 48 48">
  <rect width="40" height="40" x="4" y="6" fill="#000" opacity=".2" rx="4"/>
  <path fill="#000" d="M13.24 24.364v8.113c-.005 1.12-.505 1.71-1.414 1.71-.858 0-1.415-.534-1.432-1.46H7.945c-.011 2.324 1.648 3.432 3.756 3.432 2.358 0 3.966-1.426 3.972-3.682v-8.113H13.24zM19.713 36l.864-2.653h4.199L25.639 36h2.636l-4.011-11.636h-3.171L17.076 36h2.636zm1.489-4.574l1.432-4.403h.09l1.433 4.403H21.2zm18.207-7.062H36.96v7.318h-.102l-5.023-7.318h-2.159V36h2.46v-7.324h.086L37.283 36h2.125V24.364z"/>
  <g opacity=".4">
    <path fill="#000" d="M10 4a2 2 0 114 0v4a2 2 0 11-4 0V4zM34 4a2 2 0 114 0v4a2 2 0 11-4 0V4z"/>
  </g>
  <path fill="#000" fill-rule="evenodd" d="M10 6.009c-2.48.036-3.885.22-4.828 1.163C4 8.343 4 10.229 4 14v2h40v-2c0-3.771 0-5.657-1.172-6.828-.943-.944-2.348-1.127-4.828-1.163V8a2 2 0 11-4 0V6H14v2a2 2 0 11-4 0V6.009z" clip-rule="evenodd"/>
</svg>
